Dominus_Funeral/22/apps/gnome-panel-window-menu.svg

<svg xmlns="http://www.w3.org/2000/svg" width="24" height="24" viewBox="0 0 6.35 6.35"><path d="M2.17.3a.27.27 0 0 0-.27.26V2.3H.43a.27.27 0 0 0-.27.27V5.8a.27.27 0 0 0 .26.27h3.76a.27.27 0 0 0 .27-.27V4.05h1.47a.27.27 0 0 0 .27-.27V.56a.27.27 0 0 0-.26-.27H2.17zm0 .86h3.75c.04 0 .07.03.07.07v2.55a.07.07 0 0 1-.07.07H4.45V2.57a.27.27 0 0 0-.27-.27h-2.1l.02-1.07c0-.04.03-.07.07-.07zM.43 3.18h3.75c.04 0 .07.03.07.06V5.8a.07.07 0 0 1-.07.07H.43a.07.07 0 0 1-.07-.07V3.24c0-.03.03-.06.07-.06zm1.87.12c-.32 0-.66.12-.76.36-.06.13 0 .38.2.38.11 0 .17-.08.18-.15 0-.05-.02-.1-.03-.14-.02-.05.04-.15.11-.19l.13-.05a.48.48 0 0 1 .49.2c.08.13-.01.33-.14.52-.14.2-.28.41-.28.65v.15c0 .03.1.03.17.02 0-.23.04-.45.26-.6.22-.18.44-.4.42-.66 0-.25-.3-.45-.61-.48a1.1 1.1 0 0 0-.14 0zM2.3 5.35c-.2 0-.33.21-.22.35.11.16.4.12.45-.06.05-.13-.07-.3-.23-.29z" fill="#1a1a1a"/></svg>

<?xml version="1.0" encoding="UTF-8" standalone="no"?>
<svg
   xmlns:dc="http://purl.org/dc/elements/1.1/"
   xmlns:cc="http://creativecommons.org/ns#"
   xmlns:rdf="http://www.w3.org/1999/02/22-rdf-syntax-ns#"
   xmlns:svg="http://www.w3.org/2000/svg"
   xmlns="http://www.w3.org/2000/svg"
   xmlns:sodipodi="http://sodipodi.sourceforge.net/DTD/sodipodi-0.dtd"
   xmlns:inkscape="http://www.inkscape.org/namespaces/inkscape"
   width="24"
   height="24"
   viewBox="0 0 6.35 6.35"
   version="1.1"
   id="svg4"
   sodipodi:docname="gnome-panel-window-menu.svg"
   inkscape:version="0.92.4 (5da689c313, 2019-01-14)">
  <metadata
     id="metadata10">
    <rdf:RDF>
      <cc:Work
         rdf:about="">
        <dc:format>image/svg+xml</dc:format>
        <dc:type
           rdf:resource="http://purl.org/dc/dcmitype/StillImage" />
        <dc:title></dc:title>
      </cc:Work>
    </rdf:RDF>
  </metadata>
  <defs
     id="defs8" />
  <sodipodi:namedview
     pagecolor="#ffffff"
     bordercolor="#666666"
     borderopacity="1"
     objecttolerance="10"
     gridtolerance="10"
     guidetolerance="10"
     inkscape:pageopacity="0"
     inkscape:pageshadow="2"
     inkscape:window-width="1138"
     inkscape:window-height="480"
     id="namedview6"
     showgrid="false"
     inkscape:zoom="9.8333333"
     inkscape:cx="1.0677966"
     inkscape:cy="12"
     inkscape:window-x="0"
     inkscape:window-y="25"
     inkscape:window-maximized="0"
     inkscape:current-layer="svg4" />
  <path
     d="M 2.17,0.3 A 0.27,0.27 0 0 0 1.9,0.56 V 2.3 H 0.43 A 0.27,0.27 0 0 0 0.16,2.57 V 5.8 A 0.27,0.27 0 0 0 0.42,6.07 H 4.18 A 0.27,0.27 0 0 0 4.45,5.8 V 4.05 H 5.92 A 0.27,0.27 0 0 0 6.19,3.78 V 0.56 A 0.27,0.27 0 0 0 5.93,0.29 H 2.17 Z m 0,0.86 h 3.75 c 0.04,0 0.07,0.03 0.07,0.07 V 3.78 A 0.07,0.07 0 0 1 5.92,3.85 H 4.45 V 2.57 A 0.27,0.27 0 0 0 4.18,2.3 H 2.08 L 2.1,1.23 C 2.1,1.19 2.13,1.16 2.17,1.16 Z M 0.43,3.18 h 3.75 c 0.04,0 0.07,0.03 0.07,0.06 V 5.8 A 0.07,0.07 0 0 1 4.18,5.87 H 0.43 A 0.07,0.07 0 0 1 0.36,5.8 V 3.24 C 0.36,3.21 0.39,3.18 0.43,3.18 Z M 2.3,3.3 c -0.32,0 -0.66,0.12 -0.76,0.36 -0.06,0.13 0,0.38 0.2,0.38 0.11,0 0.17,-0.08 0.18,-0.15 C 1.92,3.84 1.9,3.79 1.89,3.75 1.87,3.7 1.93,3.6 2,3.56 L 2.13,3.51 a 0.48,0.48 0 0 1 0.49,0.2 C 2.7,3.84 2.61,4.04 2.48,4.23 2.34,4.43 2.2,4.64 2.2,4.88 V 5.03 C 2.2,5.06 2.3,5.06 2.37,5.05 2.37,4.82 2.41,4.6 2.63,4.45 2.85,4.27 3.07,4.05 3.05,3.79 3.05,3.54 2.75,3.34 2.44,3.31 a 1.1,1.1 0 0 0 -0.14,0 z m 0,2.05 C 2.1,5.35 1.97,5.56 2.08,5.7 2.19,5.86 2.48,5.82 2.53,5.64 2.58,5.51 2.46,5.34 2.3,5.35 Z"
     id="path2"
     inkscape:connector-curvature="0"
     style="fill:#1a1a1a" />
</svg>
